X:1
T:Gelübde
T:Patriotisch-Protestantisches Studentenlied
T:August Daniel von Binzer
T:Hans Ferdinand Maßmann
T:© 2012
T:© 2012
T:© 2012
T:© 2012
T:© 2012
T:© 2012
Z:© 2012
%%score { 1 | 2 } 3 4
L:1/8
M:4/4
K:D
V:1 treble+8 nm="Piano" snm="Pno."
V:2 bass 
V:3 treble nm="Piano" snm="Pno."
V:4 bass nm="Euphonium" snm="Eu."
V:1
!ff! z6 A,2 | F4 E2 F2 | D4 A,2 A,2 | A4 G2 A2 | F4 z2 D2 | B2 B2 B2 B2 | A4 F2 A2 | %7
w: Ich|hab' mich er-|ge- ben, mit|Herz und mit|Hand, dir|Land voll Lieb' und|Le- ben, mein|
w: Mein|Herz ist ent-|glom- men, dir|treu zu ge-|wandt, du|Land der Frei'n und|From- men, du|
 A2 (GF) G2 A2 | F4 z2 D2 | B2 B2 d2 B2 | A4 F2 A2 | A2 (GF) G2 A2 | F6 z2 :: z6 E2 | c4 B2 c2 | %15
w: deut- sche- s Va- ter-|land, dir|Land voll Lieb' und|Le- ben, mein|deut- sche- s Vat- er-|land!|Du|Land reich an|
w: herr- lic- h Her- manns-|land, du|Land der Frei'n und|From- men, du|herr- lic- h Her- manns-|land!|Ach|Gott, tu er-|
 A4 E2 E2 | e4 d2 e2 | c4 z2 A2 | f2 f2 f2 f2 | e4 c2 e2 | e2 (dc) d2 e2 | c4 z2 A2 | f2 f2 a2 f2 | %23
w: Ruh- me, wo|Lut- her er|stand, für|dei- nes Vol- kes|Tu- me reich|ich mei- n Herz und|Hand, für|dei- nes Vol- kes|
w: he- ben mein|jung' Her- zens-|blut zu|fri- schem, freud'- gem|Le- ben, zu|frei- e- m, from- mem|Mut, zu|frisch- em, freud'- gem|
 e4 c2 e2 | e2 (dc) d2 e2 | c6 z2 :| z6 C2 | ^A4 ^G2 A2 | F4 C2 C2 | c4 B2 c2 | ^A4 z2 F2 | %31
w: Tu- me reich|ich mei- n Herz und|Hand!|Will|hal- ten und|glau- ben an|Gott, fromm und|frei, will|
w: Le- ben, zu|frei- e- m, from- mem|Mut!||||||
 ^d2 d2 d2 d2 | c4 ^A2 c2 | c2 (B^A) B2 c2 | ^A4 z2 F2 | ^d2 d2 f2 d2 | c4 ^A2 c2 | %37
w: Vat- er- land dir|blei- ben auf|e- wi- g fest und|treu, will|Va- ter- land dir|blei- ben auf|
w: ||||||
 c2 (B^A) B2 c2 | ^A6 z2 | z6 A,2 | F4 E2 F2 | D4 A,2 A,2 | A4 G2 A2 | F4 z2 D2 | B2 B2 B2 B2 | %45
w: e- wi- g fest und|treu!|Lass|Kraft mich er-|wer- ben in|Herz und in|Hand, zu|le- ben und zu|
w: ||||||||
 A4 F2 A2 | A2 (GF) G2 A2 | F4 z2!fff! D2 | B2 B2 d2 B2 | A4 F2 A2 | A2 (GF) G2 A2 | %51
w: ster- ben, fürs|heil'- g- e Va- ter-|land, zu|le- ben und zu|ster- ben, fürs|heil'- g- e Va- ter-|
w: ||||||
 !>!d4 z2!ff! A2 | A2 (GF) G2 A2 | !fermata!D8 |] %54
w: land, fürs|heil'- g- e Va- ter-|land!|
w: |||
V:2
!ff! z6 A,2 | F,4 E,2 F,2 | D,4 A,,2 A,,2 | A,4 G,2 A,2 | F,4 z2 D,2 | B,2 B,2 B,2 B,2 | %6
 A,4 F,2 A,2 | A,2 (G,F,) G,2 A,2 | F,4 z2 D,2 | B,2 B,2 D2 B,2 | A,4 F,2 A,2 | %11
 A,2 (G,F,) G,2 A,2 | F,6 z2 :: z6 E,,2 | C,4 B,,2 C,2 | A,,4 E,,2 E,,2 | E,4 D,2 E,2 | %17
 C,4 z2 A,,2 | F,2 F,2 F,2 F,2 | E,4 C,2 E,2 | E,2 (D,C,) D,2 E,2 | C,4 z2 A,,2 | F,2 F,2 A,2 F,2 | %23
 E,4 C,2 E,2 | E,2 (D,C,) D,2 E,2 | C,6 z2 :| z6 C,2 | ^A,4 ^G,2 A,2 | F,4 C,2 C,2 | C4 B,2 C2 | %30
 ^A,4 z2 F,2 | ^D2 D2 D2 D2 | C4 ^A,2 C2 | C2 (B,^A,) B,2 C2 | ^A,4 z2 F,2 | ^D2 D2 F2 D2 | %36
 C4 ^A,2 C2 | C2 (B,^A,) B,2 C2 | ^A,6 z2 | z6 A,,2 | A,4 G,2 A,2 | D,4 F,2 F,2 | A,4 G,2 A,2 | %43
 F,4 z2 D,2 | F,2 A,2 F,2 F,2 | A,4 F,2 A,2 | A,2 (G,F,) G,2 A,2 | F,4 z2!fff! D,2 | D2 D2 F2 D2 | %49
 A,4 F,2 A,2 | A,2 (G,F,) G,2 A,2 | !>!F,4 z2!ff! A,2 | A,2 (G,F,) G,2 F,2 | !fermata!F,8 |] %54
V:3
!ff! A2 F4 E2 | F2 Ac AcAF | F2 A2 EAEA | FDDF Bdec | AFCF EDA,D | G2 B2 d2 B2 | A2 A2 A2 F2 | %7
 F2 BA BefA | z A2 c2 f2 a | g2 G2 G2 G2 | FDEC AFEF | CEBA Bdfa | a2 f2 c2 d2 :: e2 c4 B2 | %14
 c2 E^G EGEC | c2 e2 BeBe | cAAc FAB^G | EC^GC BAEA | d2 f2 a2 f2 | e2 e2 e2 c2 | c2 FE FBcE | %21
 z E2 ^G2 c2 e | d2 D2 D2 D2 | CA,B,^G, ECB,C | ^G,B,FE FAce | e2 c2 ^G2 A2 :| c2 ^A4 ^G2 | %27
 ^A2 c=f cfcA | ^A2 c2 ^GcGc | ^AFFA ^df^g=f | c^A=FA ^G^FCF | B2 ^d2 f2 d2 | c2 c2 c2 ^A2 | %33
 ^A2 ^dc d^g^ac | z c2 =f2 ^a2 c' | b2 B2 B2 B2 | ^AF^G=F cAGA | =F^G^dc df^ac' | c'2 ^a2 =f2 ^f2 | %39
 e2 g2 a2 c2 | A2 c2 cgac | fafa fafa | cece Bdce | afcf cAFD | GGBB ddgg | fa c2 Ac A2 | %46
 F2 D2 B,2 F2 | A2 F2 A2!fff! d2 | G2 B2 d2 g2 | a2 f2 f2 a2 | a2 ba bgad' | %51
 Ta/4b/4a/4b/4a/4b/4a/4b/4 a/4b/4a/4b/4a/4b/4a/4b/4 a/4b/4a/4b/4a/4b/4a/4b/4 a2 | a2 ba bgad' | %53
 !fermata!a8 |] %54
V:4
!mp! F,2 A,2 C2 A,2 | F,2 C,2 E,2 F,2 | A,2 A,2 C2 A,2 | F,2 A,2 C2 A,2 | A,2 C2 E2 F2 | %5
 G,2 B,2 G,2 B,2 | F,2 A,2 F,2 A,2 | F,2 A,2 G,2 A,2 | C2 A,2 D2 A,2 | B,2 G,2 B,2 G,2 | %10
 F,2 A,2 F,2 A,2 | C2 F2 G2 A2 | F2 F,2 F,2 G,2 :: C,2 E,2 ^G,2 E,2 | C,2 ^G,,2 B,,2 C,2 | %15
 E,2 E,2 ^G,2 E,2 | C,2 E,2 ^G,2 E,2 | E,2 ^G,2 B,2 C2 | D,2 F,2 D,2 F,2 | C,2 E,2 C,2 E,2 | %20
 C,2 E,2 D,2 E,2 | ^G,2 E,2 A,2 E,2 | F,2 D,2 F,2 D,2 | C,2 E,2 C,2 E,2 | ^G,2 C2 D2 E2 | %25
 C2 C,2 C,2 D,2 :| C2 ^A,2 F,2 C,2 | ^A,2 C2 ^G,2 A,2 | F,2 ^A,2 ^G,2 C2 | C2 F2 B,2 C2 | %30
 F2 C2 C2 C2 | F2 B2 B2 ^D2 | C2 =F2 ^A2 C2 | ^A,2 C2 ^D2 C2 | ^A,2 C2 A,2 F,2 | B,2 B,2 F2 F2 | %36
 C2 ^A,2 F,2 A,2 | C2 ^A,2 ^D2 B,2 | C2 ^A,2 C2 F2 | A,2 C2 A,2 C2 | D,2 A,2 E,2 D,2 | %41
 F,2 A,,2 F,2 A,,2 | C,2 A,,2 B,,2 C,2 | F,2 D,2 A,,2 D,2 | G,2 D,2 G,2 D,2 | A,2 C2 F2 A,2 | %46
 F,2 D,2 G,2 A,2 | F,2 A,,2 D,2!f! A,,2 | B,,2 G,2 D,2 D,2 | A,2 C,2 F,2 A,,2 | %50
 C,2 G,,2 B,,2 A,,2 | DGFD A,F,!mf! A,,2 | C,2 G,,2 B,,2 A,,2 | D2 !fermata!F6 |] %54

